X: 11381
T: Earl's Lane
R: jig
M: 6/8
K: Bminor
|:FBB Bcd|cBA BAF|ABA Ac/B/A|ece a^ga|
b2f aef|ecf ece|fgf edc|1 B/c/dB cAE:|2 ~B3 BA/B/c||
dfd gfd|ec/B/A AFD|GBd dB/c/d|cde gfe|
faa gab|agf efg|fgf edc|~d2B cde|
fdf gfd|ec/B/A AFD|GBd dB/c/d|cde gfe|
faa gab|agf efg|a2a gab|aed cAE||

